X:1
T:Message of Christmas Time
T:Message of Christmas Time
T:Joseph Lincoln Hall
T:Joseph Lincoln Hall, 1899
T:Public Domain Courtesy of the Cyber Hymnal™
T:Public Domain Courtesy of the Cyber Hymnal™
C:Joseph Lincoln Hall
Z:Public Domain
Z:Courtesy of the Cyber Hymnal™
%%score ( 1 2 ) ( 3 4 )
L:1/8
Q:1/4=105
M:4/4
K:F
V:1 treble 
V:2 treble 
V:3 bass 
V:4 bass 
V:1
 [FA]2 [F^G]2 [FA]3 C | [FA]>[F^G] [FA]>[FG] [FA]4 | F2 [FA]2 [Fd]2 [Fc]2 | %3
w: 1.~Sweet- ly chime the|mer- ry Christ- mas bells,|Mer- ry Christ- mas|
w: 2.~Sweet the tale the|bless- èd an- gels told|On that hap- py|
w: 3.~Bright- ly shone the|star of Beth- le- hem,|To the sleep- ing|
 ([Be]2 e>[Be] [EGBe]2) z2 | [GB]2 [^FA]2 [GB]3 [FA] | [GB]>[F^A] [GB]>[FA] [GB]4 | %6
w: bells, * * *|Blithe and gay their|hap- py mu- sic swells,|
w: morn, * * *|How the Lord in|Beth- le- hem of old,|
w: world, * * *|How it led the|sag- es from a- far,|
 [Be]2 [Bd]2 [Gc]2 [GB]2 | [FA]6 z2 | [FA]2 [F^G]2 [FA]3 C | [FA]>[F^G] [FA]>[FG] [FA]4 | %10
w: Ring- ing sweet and|clear;|How they ring a|song of Christ- mas cheer,|
w: To the earth was|born;|Now re- joice, the|prom- ised king is here,|
w: To the man- ger|child;|There He lay on|hum- ble bed of hay,|
 [^FA][FA][F^G][FA] [FB]2 [FA]2 | [Gd]6 z2 | [Ec]6 [Gd][Ge] | [Ff]4 !fermata!F3 [FG] | %14
w: Sound- ing sweet- ly in the|air:|Ring out the|cho- rus, The|
w: Prince of peace in- deed is|He:|Ring out the|chor- us, The|
w: He the king of all the|earth:|Ring out the|chor- us, The|
 [FA] [Fd]2 [Fc] [DB]2 [CE]2 | F6 z2 ||"^Refrain" [A,C]2 [A,D]2 [A,E]2 [A,CF]2 | %17
w: mes- sage of Christ- mas|time.||
w: mes- sage of Christ- mas|time.|Sweet- ly chime the|
w: mes- sage of Christ- mas|time.||
 A>^G A>G A4 [CF]2 | [A,C]2 [A,D]2 [A,F]2 [A,D]2 | E6 ([B,C]2 [B,C]2 [B,C]2) | %20
w: |||
w: mer- ry Christ- mas bells, Mer-|* ry Christ- mas|bells, Blithe * *|
w: |||
 [B,C]2 [B,D]2 [B,E]2 [B,G]2 | B>A B>A B4 [EG]2 | [EGBe]2 [EGBd]2 [EGBc]2 [EGB]2 | %23
w: |||
w: * and gay their|hap- py mu- sic swells; Hap-|* py mu- sic|
w: |||
 A6 ([CF]2 [CF]2 [CF]2) | [A,C]2 [A,D]2 [A,E]2 [A,CF]2 | A>^G A>G A4 [CF]2 | AA^GA [=FB]2 [FA]2 | %27
w: ||||
w: swells; Glad- * *|* ly ring ye|mer- ry, mer- ry bells, Ring|* the sto- ry ev- er|
w: ||||
 d6 ([DG]2 [DG]2 [DG]2) | c6 ([EGB]2 [EGB]2) de | f4 [FA]2 F3 G | A z z c [EGB]2 [CE]2 | F6 C4 |] %32
w: |||||
w: dear; Ring * *|* out * the chor-|* us, The mes-|* sage of Christ-|* mas|
w: |||||
V:2
 x7 C | x8 | F2 x6 | [EG]6 x2 | x8 | x8 | x8 | x8 | x7 C | x8 | x8 | x8 | x8 | x4 F3 x | x8 | %15
 (C2 D2 C2) x2 || x8 | [CF]2 [CF]2 [CF]2 x4 | x8 | [B,C]2 x10 | x8 | [EG]2 [EG]2 [EG]2 x4 | x8 | %23
 [CF]2 x10 | x8 | [CF]2 [CF]2 [CF]2 x4 | ^F2 F2 x4 | [DG]2 x10 | [EGB]2 x10 | [FA]2 x8 | %30
 [EG]2 d2 [FA]2 x2 | C2 D2 x6 |] %32
V:3
 [F,C]2 [F,=B,]2 [F,C]3 [F,A,] | [F,C]>[F,=B,] [F,C]>[F,B,] [F,C]4 | %2
 [F,A,]2 [F,C]2 [F,B,]2 [F,A,]2 | ([C,C]2 [C,C]>[C,C] [C,C]2) z2 | [C,C]2 [C,C]2 [C,C]3 [C,C] | %5
 [C,C]>[C,C] [C,C]>[C,C] [C,C]4 | [C,C]2 [C,C]2 [D,C]2 [E,C]2 | (C2 D2 C2 A,2) | %8
 [F,C]2 [F,=B,]2 [F,C]3 [F,A,] | [F,C]>[F,=B,] [F,C]>[F,B,] [F,C]4 | %10
 [D,C][D,C][D,C][D,C] [D,C]2 [D,C]2 | ([G,B,]2 [G,B,]2 [G,B,]2) z2 | %12
 ([B,C]2 [B,C]2 [B,C]2) [B,C][B,C] | C4 !fermata![_D,B,]3 [D,B,] | %14
 [C,C] [C,A,]2 [C,A,] [C,G,]2 [C,B,]2 | (A,2 B,2 A,2) z2 || [F,,F,]2 [C,,C,]2 [F,,F,]2 [C,,C,]2 | %17
 [F,,F,]2 [C,,C,]2 ([F,,F,]2 [C,,C,]2) x2 | [F,,F,]2 [C,,C,]2 [F,,F,]2 [C,,C,]2 | %19
 ([G,,G,]2 [C,,C,]2 [G,,G,]2 [C,,C,]2) x4 | [G,,G,]2 [C,,C,]2 [G,,G,]2 [C,,C,]2 | %21
 [G,,G,]2 [C,,C,]2 ([G,,G,]2 [C,,C,]2) x2 | [G,,G,]2 [C,,C,]2 [G,,G,]2 [C,,C,]2 | %23
 ([F,,F,]2 [E,,E,]2 [D,,D,]2 [C,,C,]2) x4 | [F,,F,]2 [C,,C,]2 [F,,F,]2 [C,,C,]2 | %25
 [F,,F,]2 [C,,C,]2 ([F,,F,]2 [C,,C,]2) x2 | [D,C]2 [D,C]2 [D,A,C]2 [D,A,C]2 | %27
 ([G,B,]2 [G,B,]2 [G,B,]2 [G,B,]2) x4 | ([G,B,C]2 [G,B,C]2 [G,B,C]2) z2 x4 | %29
 ([F,A,C]2 [F,A,C]2) [_D,F,_A,=B,]3 z x2 | [C,F,A,C]2 [C,F,A,C]2 [C,G,C]2 [C,G,B,]2 | %31
 ([F,A,]2 [F,B,]2 [F,A,]4) x2 |] %32
V:4
 x8 | x8 | x8 | x8 | x8 | x8 | x8 | F,6 x2 | x8 | x8 | x8 | x8 | x8 | (A,2 F,2) x4 | x8 | F,6 x2 || %16
 x8 | x10 | x8 | x12 | x8 | x10 | x8 | x12 | x8 | x10 | x8 | x12 | x12 | x10 | x8 | x10 |] %32

